build/img/filters.svg

<svg width="22" height="22" viewBox="0 0 22 22" fill="none" xmlns="http://www.w3.org/2000/svg">
<path d="M21.0833 17.4167H18.6423C18.2453 16.0958 17.0317 15.125 15.5833 15.125C14.135 15.125 12.9222 16.0958 12.5244 17.4167H0.916652C0.410652 17.4167 0 17.8273 0 18.3333C0 18.8393 0.410652 19.25 0.916652 19.25H12.5244C12.9213 20.5709 14.135 21.5417 15.5833 21.5417C17.0316 21.5417 18.2444 20.5709 18.6422 19.25H21.0833C21.5902 19.25 22 18.8393 22 18.3333C22 17.8273 21.5903 17.4167 21.0833 17.4167ZM15.5833 19.7083C14.8252 19.7083 14.2083 19.0914 14.2083 18.3333C14.2083 17.5753 14.8252 16.9583 15.5833 16.9583C16.3414 16.9583 16.9583 17.5753 16.9583 18.3333C16.9583 19.0914 16.3414 19.7083 15.5833 19.7083Z" fill="#757575"/>
<path d="M21.0833 2.75003H18.6423C18.2444 1.42912 17.0317 0.458374 15.5833 0.458374C14.135 0.458374 12.9222 1.42912 12.5244 2.75003H0.916652C0.410652 2.75003 0 3.16068 0 3.66668C0 4.17268 0.410652 4.58333 0.916652 4.58333H12.5244C12.9222 5.90428 14.135 6.87503 15.5833 6.87503C17.0317 6.87503 18.2444 5.90428 18.6423 4.58337H21.0833C21.5903 4.58337 22 4.17272 22 3.66672C22 3.16072 21.5903 2.75003 21.0833 2.75003ZM15.5833 5.04168C14.8252 5.04168 14.2083 4.42478 14.2083 3.66668C14.2083 2.90858 14.8252 2.29168 15.5833 2.29168C16.3414 2.29168 16.9583 2.90858 16.9583 3.66668C16.9583 4.42478 16.3414 5.04168 15.5833 5.04168Z" fill="#757575"/>
<path d="M21.0833 10.0833H9.4756C9.07775 8.76244 7.865 7.79169 6.4167 7.79169C4.96839 7.79169 3.7556 8.76244 3.35779 10.0833H0.916652C0.410652 10.0833 0 10.494 0 11C0 11.506 0.410652 11.9166 0.916652 11.9166H3.35775C3.7556 13.2376 4.96835 14.2083 6.41665 14.2083C7.86496 14.2083 9.07775 13.2376 9.47555 11.9166H21.0833C21.5902 11.9166 22 11.506 22 11C22 10.494 21.5903 10.0833 21.0833 10.0833ZM6.41665 12.375C5.65855 12.375 5.04165 11.7581 5.04165 11C5.04165 10.2419 5.65855 9.62499 6.41665 9.62499C7.17475 9.62499 7.79165 10.2419 7.79165 11C7.79165 11.7581 7.17475 12.375 6.41665 12.375Z" fill="#757575"/>
</svg>

<svg width="22" height="22" fill="none" xmlns="http://www.w3.org/2000/svg"><path d="M21.083 17.417h-2.44a3.202 3.202 0 00-3.06-2.292c-1.448 0-2.66.97-3.059 2.292H.917a.917.917 0 000 1.833h11.607a3.202 3.202 0 003.06 2.292c1.448 0 2.66-.971 3.058-2.292h2.441a.916.916 0 100-1.833zm-5.5 2.291a1.377 1.377 0 01-1.375-1.375c0-.758.617-1.375 1.375-1.375s1.375.617 1.375 1.375-.617 1.375-1.375 1.375zm5.5-16.958h-2.44c-.399-1.32-1.611-2.292-3.06-2.292-1.448 0-2.66.971-3.059 2.292H.917a.917.917 0 000 1.833h11.607c.398 1.321 1.611 2.292 3.06 2.292 1.448 0 2.66-.97 3.058-2.292h2.441a.916.916 0 100-1.833zm-5.5 2.292a1.377 1.377 0 01-1.375-1.375c0-.758.617-1.375 1.375-1.375s1.375.617 1.375 1.375-.617 1.375-1.375 1.375zm5.5 5.041H9.476c-.398-1.32-1.611-2.291-3.06-2.291-1.448 0-2.66.97-3.058 2.291H.917a.917.917 0 000 1.834h2.44c.399 1.32 1.611 2.291 3.06 2.291 1.448 0 2.66-.97 3.059-2.291h11.607a.916.916 0 100-1.834zM6.417 12.375A1.377 1.377 0 015.042 11c0-.758.617-1.375 1.375-1.375s1.375.617 1.375 1.375-.617 1.375-1.375 1.375z" fill="#757575"/></svg>
